X: 25
T:Cathal McConnell's
M:C|
R:reel
N:What does Cathal McConnell himself call this tune?
D:Arcady
H:A version of "The Pigeon on the Gate", #141
Z:Henrik Norbeck
K:G
dG~G2 d3G|(3Bcd eB dcAB|cF~F2 c3A|(3Bcd eB dBAB|
dG~G2 d3G|(3Bcd eB dcAG|FGAd ~f3e|fdcA G2Bc:|
|:dggf g2bg|dg~g2 agfe|dffe f2fe|defg agfe|
dggf g2bg|dg~g2 agfg|bg~g2 agfe|defd cABc:|

